packages/icons/src/components/Icon/assets/small/italic.svg

<svg width="16" height="16" viewBox="0 0 16 16" fill="none" xmlns="http://www.w3.org/2000/svg">
<path fill-rule="evenodd" clip-rule="evenodd" d="M6.86319 3.75C6.86319 3.33579 7.19897 3 7.61319 3H11.4764C11.8906 3 12.2264 3.33579 12.2264 3.75C12.2264 4.16421 11.8906 4.5 11.4764 4.5H10.046L7.54627 11.5H8.38582C8.80003 11.5 9.13582 11.8358 9.13582 12.25C9.13582 12.6642 8.80003 13 8.38582 13H4.52368C4.10947 13 3.77368 12.6642 3.77368 12.25C3.77368 11.8358 4.10947 11.5 4.52368 11.5H5.95349L8.45325 4.5H7.61319C7.19897 4.5 6.86319 4.16421 6.86319 3.75Z" fill="#727683"/>
</svg>

<svg xmlns="http://www.w3.org/2000/svg" width="16" height="16" fill="none" viewBox="0 0 16 16">
    <path fill="#727683" fill-rule="evenodd" d="M6.863 3.75a.75.75 0 0 1 .75-.75h3.863a.75.75 0 0 1 0 1.5h-1.43l-2.5 7h.84a.75.75 0 0 1 0 1.5H4.524a.75.75 0 0 1 0-1.5h1.43l2.5-7h-.84a.75.75 0 0 1-.75-.75" clip-rule="evenodd"/>
</svg>
